public/icons/musicIcon.svg

<svg width="40" height="40" viewBox="0 0 40 40" fill="none" xmlns="http://www.w3.org/2000/svg">
<path fill-rule="evenodd" clip-rule="evenodd" d="M34.0001 18.5C34.0001 18.8 34.0001 19.6 33.6001 22.9C35.7001 23.9 36.8001 26.3 36.0001 28.7L35.2001 31.8C34.6001 34 32.6001 35.5 30.4001 35.5C30.0001 35.5 29.5001 35.4 29.1001 35.3L27.2001 34.8C26.6001 35.1 25.8001 35.2 25.1001 35C24.3001 34.8 23.7001 34.3 23.3001 33.6C22.9001 32.9 22.8001 32.1 23.0001 31.3L25.4001 22.6C25.9001 21 27.5001 20.1 29.1001 20.5C29.9001 20.7 30.6001 21.3 31.0001 22.1L31.7001 22.3C31.8501 20.85 31.9501 19.95 32.0126 19.3875L32.0126 19.3874L32.0126 19.3871C32.0751 18.8249 32.1001 18.6 32.1001 18.5C32.1001 16.2 31.6001 14 30.6001 12.2C29.6001 13 28.3001 13.8 27.0001 13.8C26.2001 13.8 25.4001 13.5 24.5001 12.8C23.2001 11.7 21.7001 11.1 20.1001 11.1C18.5001 11.1 17.0001 11.7 15.7001 12.8C13.4001 14.8 11.0001 13.2 9.6001 12.2C8.6001 14 8.0001 16.2 8.0001 18.5C8.0001 18.5529 8.00711 18.6409 8.01926 18.7935C8.05303 19.2176 8.12657 20.141 8.2001 22.2L8.9001 22C9.3001 21.2 10.0001 20.6 10.8001 20.4C12.4001 19.9 14.1001 20.9 14.5001 22.5L16.8001 31.2C17.0001 32 16.9001 32.8 16.5001 33.5C16.1001 34.2 15.5001 34.7 14.7001 34.9C14.0001 35.1 13.2001 35 12.6001 34.7L10.7001 35.2C10.3001 35.3 9.8001 35.4 9.4001 35.4C7.2001 35.4 5.2001 33.9 4.6001 31.7L3.8001 28.6C3.2001 26.2 4.3001 23.8 6.4001 22.8C6.0001 19.5 6.0001 18.8 6.0001 18.5C6.0001 10.2 12.0001 4 20.0001 4C28.0001 4 34.0001 10.2 34.0001 18.5ZM11.8001 22.4H11.5001C11.1001 22.5 10.9001 22.8 10.8001 23.2C10.8001 23.3 10.8001 23.4 10.7001 23.5L13.2001 32.8C13.3001 32.8 13.4001 32.8 13.5001 32.9C13.8001 33.1 14.1001 33.2 14.4001 33.1C14.7001 33 14.9001 32.8 15.0001 32.6C15.013 32.5612 15.0259 32.5242 15.0384 32.4883C15.1226 32.2467 15.1872 32.0612 15.1001 31.8L12.8001 23.1C12.6001 22.7 12.2001 22.4 11.8001 22.4ZM9.7001 23.9L12.1001 32.8L10.2001 33.3C8.6001 33.7 7.0001 32.8 6.5001 31.2L5.7001 28.1C5.3001 26.5 6.2001 24.9 7.8001 24.4L9.7001 23.9ZM20.0001 9.1C22.0001 9.1 24.1001 9.9 25.7001 11.3C26.7001 12.2 27.5001 11.9 29.4001 10.5C27.2001 7.7 23.9001 6 20.0001 6C16.1001 6 12.8001 7.7 10.6001 10.5C12.4001 11.7 13.4001 12.1 14.3001 11.3C15.9001 9.9 17.9001 9.1 20.0001 9.1ZM25.7001 33C25.4001 32.9 25.2001 32.8 25.1001 32.5C25.0872 32.4612 25.0743 32.4242 25.0618 32.3883C24.9776 32.1467 24.913 31.9612 25.0001 31.7L27.3001 23C27.4001 22.5 28.0001 22.1 28.5001 22.3C28.9001 22.4 29.1001 22.7 29.2001 23C29.2001 23.05 29.2251 23.1 29.2501 23.15C29.2751 23.2 29.3001 23.25 29.3001 23.3L26.8001 32.6C26.7001 32.6 26.6001 32.7 26.5001 32.8L26.5001 32.8C26.3001 33.1 26.0001 33.1 25.7001 33ZM33.4001 31.2L34.2001 28.1C34.7001 26.5 33.7001 24.9 32.1001 24.4L30.2001 23.9L27.8001 32.8L29.7001 33.3C30.5001 33.5 31.3001 33.4 32.0001 33C32.7001 32.6 33.2001 32 33.4001 31.2Z" fill="#48CCFD"/>
</svg>

<svg width="40" height="40" fill="none" xmlns="http://www.w3.org/2000/svg"><path fill-rule="evenodd" clip-rule="evenodd" d="M34 18.5c0 .3 0 1.1-.4 4.4 2.1 1 3.2 3.4 2.4 5.8l-.8 3.1c-.6 2.2-2.6 3.7-4.8 3.7-.4 0-.9-.1-1.3-.2l-1.9-.5c-.6.3-1.4.4-2.1.2-.8-.2-1.4-.7-1.8-1.4-.4-.7-.5-1.5-.3-2.3l2.4-8.7c.5-1.6 2.1-2.5 3.7-2.1.8.2 1.5.8 1.9 1.6l.7.2c.15-1.45.25-2.35.313-2.913.062-.562.087-.787.087-.887 0-2.3-.5-4.5-1.5-6.3-1 .8-2.3 1.6-3.6 1.6-.8 0-1.6-.3-2.5-1-1.3-1.1-2.8-1.7-4.4-1.7-1.6 0-3.1.6-4.4 1.7-2.3 2-4.7.4-6.1-.6-1 1.8-1.6 4-1.6 6.3 0 .053.007.14.02.294.033.424.107 1.347.18 3.406l.7-.2c.4-.8 1.1-1.4 1.9-1.6 1.6-.5 3.3.5 3.7 2.1l2.3 8.7c.2.8.1 1.6-.3 2.3-.4.7-1 1.2-1.8 1.4-.7.2-1.5.1-2.1-.2l-1.9.5c-.4.1-.9.2-1.3.2-2.2 0-4.2-1.5-4.8-3.7l-.8-3.1c-.6-2.4.5-4.8 2.6-5.8-.4-3.3-.4-4-.4-4.3C6 10.2 12 4 20 4s14 6.2 14 14.5Zm-22.2 3.9h-.3c-.4.1-.6.4-.7.8 0 .1 0 .2-.1.3l2.5 9.3c.1 0 .2 0 .3.1.3.2.6.3.9.2.3-.1.5-.3.6-.5l.038-.112c.085-.241.15-.427.062-.688l-2.3-8.7c-.2-.4-.6-.7-1-.7Zm-2.1 1.5 2.4 8.9-1.9.5c-1.6.4-3.2-.5-3.7-2.1l-.8-3.1c-.4-1.6.5-3.2 2.1-3.7l1.9-.5ZM20 9.1c2 0 4.1.8 5.7 2.2 1 .9 1.8.6 3.7-.8C27.2 7.7 23.9 6 20 6c-3.9 0-7.2 1.7-9.4 4.5 1.8 1.2 2.8 1.6 3.7.8 1.6-1.4 3.6-2.2 5.7-2.2ZM25.7 33c-.3-.1-.5-.2-.6-.5l-.038-.112c-.084-.241-.149-.427-.062-.688l2.3-8.7c.1-.5.7-.9 1.2-.7.4.1.6.4.7.7 0 .05.025.1.05.15.025.05.05.1.05.15l-2.5 9.3c-.1 0-.2.1-.3.2-.2.3-.5.3-.8.2Zm7.7-1.8.8-3.1c.5-1.6-.5-3.2-2.1-3.7l-1.9-.5-2.4 8.9 1.9.5c.8.2 1.6.1 2.3-.3.7-.4 1.2-1 1.4-1.8Z" fill="#48CCFD"/></svg>
